X:1
T:Stand by the Right
T:William Howard Doane
T:Stand by the Right
T:Public Domain
T:Public Domain
C:William Howard Doane
Z:Public Domain
%%score 1 2
L:1/8
M:4/4
K:Ab
V:1 treble 
V:2 bass 
V:1
 [Ec][EA][EA][DF] [CE]2 [EA]2 | [GB][GB][GB][AB] [GB]4 | [Ac][EA][EA][DF] [CE]2 [EA]2 | %3
w: 1.~Work- ing in the vine- yard,|Work- ing all the day,|Nev- er be dis- cour- aged,|
w: 2.~Work- ing for the Mas- ter,|Do not be a- fraid,|Tri- als may be- fall you,|
w: 3.~March- ing on to glo- ry,|Still your way pur- sue,|In your Fa- ther’s king- dom,|
 [FB][Fd][Ec][DB] [CA]4 | [EB][EB][EB][EA] [EG]2 [EB]2 | [=Ec][Ec][Ec][EB] [FA]4 || %6
w: On- ly watch and pray;|Do your du- ty no- bly,|Heart and hand u- nite,|
w: Nev- er be dis- mayed,|Put your trust in Je- sus,|Keep your ar- mor bright,|
w: There’s a crown for you;|Live for Him who loves you,|Keep your col- ors bright,|
"^Refrain" [FA]2 [FB][Fc] [Fd]2 [Fd]2 | [Ec]2 [GB]>[GB] [Ac]4 | [Ec]2 [EB][_Gc] [Fe]2 [Fd]2 | %9
w: |||
w: Mind- ing the watch- word,|Stand by the right,|Mind- ing the watch- word,|
w: |||
 [Ec]2 [EB]>[EA] [EA]4 |] %10
w: |
w: Stand by the right.|
w: |
V:2
 [A,,A,][A,,C][A,,C][A,,A,] [A,,A,]2 [A,,C]2 | [E,E][E,E][B,,=D][B,,D] [E,E]4 | %2
 [A,,E][A,,C][A,,C][A,,A,] [A,,A,]2 [A,,C]2 | [D,D][D,B,][E,A,][E,G,] [A,,E,A,]4 | %4
 [E,D][E,D][E,D][E,C] [E,B,]2 [E,G,]2 | [C,G,][C,G,][C,G,][C,G,] [F,C]4 || %6
 [D,D]2 [D,A,D][D,A,D] [D,A,]2 [D,A,]2 | [E,A,]2 [E,E]>[E,E] [A,,E]4 | %8
 [A,,A,]2 [A,,B,][A,,B,] [D,B,]2 [D,B,]2 | [E,A,]2 [E,D]>[E,C] [A,,C]4 |] %10

